(3002)
(6mm 1flute endmill)
(T3  D=6 CR=0 - ZMIN=12 - flat end mill)
G90 G94
G17
G21
G28 G91 Z0
G90

(Face2)
T3
S14000 M3
G54
M8
G0 X47.599 Y-38.016
Z46.75
Z19
G1 Z14.1 F1000
G18 G3 X46.999 Z13.5 I-0.6 K0
G1 X-46.999
X-47.15
G17 G2 X-47.15 Y-36.051 I0 J0.982
G1 X47.15
X47.607
G3 X47.607 Y-34.087 I0 J0.982
G1 X-47.607
X-48.409
G2 X-48.409 Y-32.123 I0 J0.982
G1 X48.409
X49.632
G3 X49.632 Y-30.158 I0 J0.982
G1 X-49.632
X-51.47
G2 X-51.47 Y-28.194 I0 J0.982
G1 X51.47
X54.485
G3 X54.485 Y-26.23 I0 J0.982
G1 X-54.485
X-61.545
G2 X-61.545 Y-24.265 I0 J0.982
G1 X61.545
X62
G3 X62 Y-22.301 I0 J0.982
G1 X-62
G2 X-62 Y-20.337 I0 J0.982
G1 X62
G3 X62 Y-18.372 I0 J0.982
G1 X-62
G2 X-62 Y-16.408 I0 J0.982
G1 X62
G3 X62 Y-14.444 I0 J0.982
G1 X-62
G2 X-62 Y-12.479 I0 J0.982
G1 X62
G3 X62 Y-10.515 I0 J0.982
G1 X-62
G2 X-62 Y-8.551 I0 J0.982
G1 X62
G3 X62 Y-6.586 I0 J0.982
G1 X-62
G2 X-62 Y-4.622 I0 J0.982
G1 X62
G3 X62 Y-2.658 I0 J0.982
G1 X-62
G2 X-62 Y-0.693 I0 J0.982
G1 X62
G3 X62 Y1.271 I0 J0.982
G1 X-62
G2 X-62 Y3.235 I0 J0.982
G1 X62
G3 X62 Y5.2 I0 J0.982
G1 X-62
G2 X-62 Y7.164 I0 J0.982
G1 X62
G3 X62 Y9.128 I0 J0.982
G1 X-62
G2 X-62 Y11.093 I0 J0.982
G1 X62
G3 X62 Y13.057 I0 J0.982
G1 X-62
G2 X-62 Y15.022 I0 J0.982
G1 X62
G3 X62 Y16.986 I0 J0.982
G1 X-62
G2 X-62 Y18.95 I0 J0.982
G1 X62
G3 X62 Y20.915 I0 J0.982
G1 X-62
G2 X-62 Y22.879 I0 J0.982
G1 X62
G3 X62 Y24.843 I0 J0.982
G1 X-62
G2 X-62 Y26.808 I0 J0.982
G1 X62
G3 X62 Y28.772 I0 J0.982
G1 X-62
G2 X-62 Y30.736 I0 J0.982
G1 X62
G3 X62 Y32.701 I0 J0.982
G1 X-62
G2 X-62 Y34.665 I0 J0.982
G1 X62
G3 X62 Y36.629 I0 J0.982
G1 X-62
G2 X-62 Y38.594 I0 J0.982
G1 X62
G3 X62 Y40.558 I0 J0.982
G1 X-62
G2 X-62 Y42.522 I0 J0.982
G1 X62
G3 X62 Y44.487 I0 J0.982
G1 X-62
G2 X-62 Y46.451 I0 J0.982
G1 X62
G3 X62 Y48.415 I0 J0.982
G1 X-62
G2 X-62 Y50.38 I0 J0.982
G1 X62
G3 X62 Y52.344 I0 J0.982
G1 X-62
G2 X-62 Y54.308 I0 J0.982
G1 X-61.507
X61.507
G3 X61.507 Y56.273 I0 J0.982
G1 X54.398
X-54.398
G2 X-54.398 Y58.237 I0 J0.982
G1 X-51.422
X51.422
G3 X51.422 Y60.201 I0 J0.982
G1 X49.602
X-49.602
G2 X-49.602 Y62.166 I0 J0.982
G1 X-48.388
X48.388
G3 X48.388 Y64.13 I0 J0.982
G1 X47.594
X-47.594
G18 G3 X-48.194 Z14.1 I0 K0.6
G0 Z36.75
X-47.599 Y-38.016
Z19
G1 Z13.1 F1000
G2 X-46.999 Z12.5 I0.6 K0
G1 X46.999
X47.15
G17 G3 X47.15 Y-36.051 I0 J0.982
G1 X-47.15
X-47.607
G2 X-47.607 Y-34.087 I0 J0.982
G1 X47.607
X48.409
G3 X48.409 Y-32.123 I0 J0.982
G1 X-48.409
X-49.632
G2 X-49.632 Y-30.158 I0 J0.982
G1 X49.632
X51.47
G3 X51.47 Y-28.194 I0 J0.982
G1 X-51.47
X-54.485
G2 X-54.485 Y-26.23 I0 J0.982
G1 X54.485
X61.545
G3 X61.545 Y-24.265 I0 J0.982
G1 X-61.545
X-62
G2 X-62 Y-22.301 I0 J0.982
G1 X62
G3 X62 Y-20.337 I0 J0.982
G1 X-62
G2 X-62 Y-18.372 I0 J0.982
G1 X62
G3 X62 Y-16.408 I0 J0.982
G1 X-62
G2 X-62 Y-14.444 I0 J0.982
G1 X62
G3 X62 Y-12.479 I0 J0.982
G1 X-62
G2 X-62 Y-10.515 I0 J0.982
G1 X62
G3 X62 Y-8.551 I0 J0.982
G1 X-62
G2 X-62 Y-6.586 I0 J0.982
G1 X62
G3 X62 Y-4.622 I0 J0.982
G1 X-62
G2 X-62 Y-2.658 I0 J0.982
G1 X62
G3 X62 Y-0.693 I0 J0.982
G1 X-62
G2 X-62 Y1.271 I0 J0.982
G1 X62
G3 X62 Y3.235 I0 J0.982
G1 X-62
G2 X-62 Y5.2 I0 J0.982
G1 X62
G3 X62 Y7.164 I0 J0.982
G1 X-62
G2 X-62 Y9.128 I0 J0.982
G1 X62
G3 X62 Y11.093 I0 J0.982
G1 X-62
G2 X-62 Y13.057 I0 J0.982
G1 X62
G3 X62 Y15.022 I0 J0.982
G1 X-62
G2 X-62 Y16.986 I0 J0.982
G1 X62
G3 X62 Y18.95 I0 J0.982
G1 X-62
G2 X-62 Y20.915 I0 J0.982
G1 X62
G3 X62 Y22.879 I0 J0.982
G1 X-62
G2 X-62 Y24.843 I0 J0.982
G1 X62
G3 X62 Y26.808 I0 J0.982
G1 X-62
G2 X-62 Y28.772 I0 J0.982
G1 X62
G3 X62 Y30.736 I0 J0.982
G1 X-62
G2 X-62 Y32.701 I0 J0.982
G1 X62
G3 X62 Y34.665 I0 J0.982
G1 X-62
G2 X-62 Y36.629 I0 J0.982
G1 X62
G3 X62 Y38.594 I0 J0.982
G1 X-62
G2 X-62 Y40.558 I0 J0.982
G1 X62
G3 X62 Y42.522 I0 J0.982
G1 X-62
G2 X-62 Y44.487 I0 J0.982
G1 X62
G3 X62 Y46.451 I0 J0.982
G1 X-62
G2 X-62 Y48.415 I0 J0.982
G1 X62
G3 X62 Y50.38 I0 J0.982
G1 X-62
G2 X-62 Y52.344 I0 J0.982
G1 X62
G3 X62 Y54.308 I0 J0.982
G1 X61.507
X-61.507
G2 X-61.507 Y56.273 I0 J0.982
G1 X-54.398
X54.398
G3 X54.398 Y58.237 I0 J0.982
G1 X51.422
X-51.422
G2 X-51.422 Y60.201 I0 J0.982
G1 X-49.602
X49.602
G3 X49.602 Y62.166 I0 J0.982
G1 X48.388
X-48.388
G2 X-48.388 Y64.13 I0 J0.982
G1 X-47.594
X47.594
G18 G2 X48.194 Z13.1 I0 K0.6
G0 Z36.75
X47.599 Y-38.016
Z19
G1 Z12.6 F1000
G3 X46.999 Z12 I-0.6 K0
G1 X-46.999
X-47.15
G17 G2 X-47.15 Y-36.051 I0 J0.982
G1 X47.15
X47.607
G3 X47.607 Y-34.087 I0 J0.982
G1 X-47.607
X-48.409
G2 X-48.409 Y-32.123 I0 J0.982
G1 X48.409
X49.632
G3 X49.632 Y-30.158 I0 J0.982
G1 X-49.632
X-51.47
G2 X-51.47 Y-28.194 I0 J0.982
G1 X51.47
X54.485
G3 X54.485 Y-26.23 I0 J0.982
G1 X-54.485
X-61.545
G2 X-61.545 Y-24.265 I0 J0.982
G1 X61.545
X62
G3 X62 Y-22.301 I0 J0.982
G1 X-62
G2 X-62 Y-20.337 I0 J0.982
G1 X62
G3 X62 Y-18.372 I0 J0.982
G1 X-62
G2 X-62 Y-16.408 I0 J0.982
G1 X62
G3 X62 Y-14.444 I0 J0.982
G1 X-62
G2 X-62 Y-12.479 I0 J0.982
G1 X62
G3 X62 Y-10.515 I0 J0.982
G1 X-62
G2 X-62 Y-8.551 I0 J0.982
G1 X62
G3 X62 Y-6.586 I0 J0.982
G1 X-62
G2 X-62 Y-4.622 I0 J0.982
G1 X62
G3 X62 Y-2.658 I0 J0.982
G1 X-62
G2 X-62 Y-0.693 I0 J0.982
G1 X62
G3 X62 Y1.271 I0 J0.982
G1 X-62
G2 X-62 Y3.235 I0 J0.982
G1 X62
G3 X62 Y5.2 I0 J0.982
G1 X-62
G2 X-62 Y7.164 I0 J0.982
G1 X62
G3 X62 Y9.128 I0 J0.982
G1 X-62
G2 X-62 Y11.093 I0 J0.982
G1 X62
G3 X62 Y13.057 I0 J0.982
G1 X-62
G2 X-62 Y15.022 I0 J0.982
G1 X62
G3 X62 Y16.986 I0 J0.982
G1 X-62
G2 X-62 Y18.95 I0 J0.982
G1 X62
G3 X62 Y20.915 I0 J0.982
G1 X-62
G2 X-62 Y22.879 I0 J0.982
G1 X62
G3 X62 Y24.843 I0 J0.982
G1 X-62
G2 X-62 Y26.808 I0 J0.982
G1 X62
G3 X62 Y28.772 I0 J0.982
G1 X-62
G2 X-62 Y30.736 I0 J0.982
G1 X62
G3 X62 Y32.701 I0 J0.982
G1 X-62
G2 X-62 Y34.665 I0 J0.982
G1 X62
G3 X62 Y36.629 I0 J0.982
G1 X-62
G2 X-62 Y38.594 I0 J0.982
G1 X62
G3 X62 Y40.558 I0 J0.982
G1 X-62
G2 X-62 Y42.522 I0 J0.982
G1 X62
G3 X62 Y44.487 I0 J0.982
G1 X-62
G2 X-62 Y46.451 I0 J0.982
G1 X62
G3 X62 Y48.415 I0 J0.982
G1 X-62
G2 X-62 Y50.38 I0 J0.982
G1 X62
G3 X62 Y52.344 I0 J0.982
G1 X-62
G2 X-62 Y54.308 I0 J0.982
G1 X-61.507
X61.507
G3 X61.507 Y56.273 I0 J0.982
G1 X54.398
X-54.398
G2 X-54.398 Y58.237 I0 J0.982
G1 X-51.422
X51.422
G3 X51.422 Y60.201 I0 J0.982
G1 X49.602
X-49.602
G2 X-49.602 Y62.166 I0 J0.982
G1 X-48.388
X48.388
G3 X48.388 Y64.13 I0 J0.982
G1 X47.594
X-47.594
G18 G3 X-48.194 Z12.6 I0 K0.6
G0 Z46.75
G17
M9
G28 G91 Z0
G90
G28 G91 X0 Y0
G90
M5
M30
